public/icons/house_icon.svg

<svg width="330" height="330" viewBox="0 0 330 330" fill="none" xmlns="http://www.w3.org/2000/svg">
<path d="M164.155 25C165.926 25.2277 167.592 25.448 169.131 26.4145C175.865 30.6441 182.06 36.9747 188.074 42.2116L221.58 71.2817C221.452 64.7997 219.66 52.0583 224.017 47.1625C225.881 46.2512 227.72 46.1028 229.759 46.0009C236.448 45.6668 261.316 44.3285 265.964 48.9692C266.943 49.947 266.976 50.592 267.146 51.9029C267.871 57.5302 267.199 64.042 267.19 69.7608L267.133 110.341C272.887 114.969 312.785 149.039 314 152.49C313.901 154.584 313.253 156.27 312.231 158.072C309.238 163.348 296.457 178.594 290.928 180.092C285.7 179.406 280.305 173.235 276.418 169.776C277.094 196.794 276.515 223.955 276.503 250.99C276.496 266.002 277.566 282.751 276.577 297.486C276.461 299.203 276.31 300.92 275.061 302.23C273.829 303.519 271.99 303.744 270.303 303.93C261.895 304.858 252.808 304.15 244.312 304.147L192.338 304.124L106.564 304.136C92.3492 304.144 77.8056 304.834 63.623 304.116C60.7855 303.972 57.2011 303.89 54.6651 302.507C52.3855 293.266 53.6727 269.681 53.6771 258.872L53.6738 171.439C50.415 174.468 45.3871 180.369 40.774 180.733C39.0907 180.865 37.7264 180.249 36.4843 179.165C31.4076 174.735 16.5378 159.017 16 152.764C21.0255 145.735 29.4659 139.895 36.031 134.266L67.9401 106.91L139.935 44.8246C146.733 38.9878 153.306 32.7775 160.178 27.0541C161.433 26.0079 162.597 25.4618 164.155 25Z" fill="black"/>
<path d="M165.303 74.4404C168.35 75.4478 257.264 153.581 267.121 162.382L267.11 294.808C230.591 294.311 193.983 294.636 157.459 294.818L157.52 192.747C157.265 191.08 156.805 189.453 155.616 188.205C153.893 186.396 151.415 185.868 149.035 185.536C143.355 184.743 136.957 185.644 131.174 185.684C122.545 185.746 113.913 185.412 105.284 185.409C101.486 185.408 96.7102 185.504 93.9376 188.454C92.756 189.711 92.2004 190.89 91.9826 192.588C90.5985 203.407 91.7207 216.234 91.7581 227.226L91.768 294.815C82.3778 294.649 72.9634 294.823 63.571 294.86C63.0847 266.478 63.5325 238.027 63.5446 209.636C63.5523 194.125 63.8087 178.595 62.8262 163.107C69.5385 155.221 85.7434 142.941 94.1918 135.66L165.303 74.4404Z" fill="#FEFEFE"/>
<path d="M192.081 183.583C202.485 183.428 212.907 183.564 223.311 183.54C228.359 183.529 233.725 183.009 238.735 183.475C240.582 183.647 242.631 184.072 244.126 185.232C246.123 186.782 246.142 189.505 246.343 191.886C247.02 199.867 247.35 233.531 246.175 240.147C245.868 241.877 245.249 243.031 244.068 244.32C242.31 246.241 240.455 246.668 237.942 246.806C229.092 246.746 190.586 248.553 185.563 244.918C183.662 241.875 183.056 238.346 182.876 234.81C182.438 226.233 182.839 217.459 182.86 208.863C182.876 202.199 182.162 194.763 183.327 188.233C183.513 187.186 184.008 186.395 184.75 185.64C186.778 183.585 189.397 183.72 192.081 183.583Z" fill="black"/>
<path d="M192.523 192.762L236.644 192.773L236.617 237.185L192.55 237.252L192.523 192.762Z" fill="#FEFEFE"/>
<path d="M165.357 34.8471C178.77 45.5921 191.57 57.3763 204.634 68.5753L304.371 154.707C299.929 160.112 295.008 165.24 290.344 170.465C282.48 162.674 273.616 155.623 265.242 148.372L220.283 109.393L186.683 80.234C180.256 74.6416 173.912 68.3905 166.942 63.5263C165.118 63.4746 164.064 63.9629 162.582 64.9824C158.028 68.1112 153.822 72.2309 149.619 75.8404L124.23 97.717C96.1042 121.64 68.2801 145.914 40.7641 170.535L27.2236 155.202C33.2151 148.998 40.082 143.385 46.5248 137.644C59.1045 126.26 71.8877 115.103 84.8668 104.177L165.357 34.8471Z" fill="#FECE00"/>
<path d="M100.925 195.073L147.811 195.068C147.46 228.3 147.783 261.568 147.779 294.805H100.904L100.925 195.073Z" fill="#FEFEFE"/>
<path d="M231.221 55.2263C240.025 55.0822 248.847 55.2219 257.652 55.2461L257.582 101.792C251.824 98.3901 236.974 84.1436 231.258 79.0297L231.221 55.2263Z" fill="#FEFEFE"/>
</svg>

<svg xmlns="http://www.w3.org/2000/svg" width="330" height="330" fill="none" viewBox="0 0 330 330"><path fill="#000" d="M164.155 25c1.771.228 3.437.448 4.976 1.415 6.734 4.23 12.929 10.56 18.943 15.797l33.506 29.07c-.128-6.482-1.92-19.224 2.437-24.12 1.864-.91 3.703-1.06 5.742-1.161 6.689-.334 31.557-1.672 36.205 2.968.979.978 1.012 1.623 1.182 2.934.725 5.627.053 12.139.044 17.858l-.057 40.58c5.754 4.628 45.652 38.698 46.867 42.149-.099 2.094-.747 3.78-1.769 5.582-2.993 5.276-15.774 20.522-21.303 22.02-5.228-.686-10.623-6.857-14.51-10.316.676 27.018.097 54.179.085 81.214-.007 15.012 1.063 31.761.074 46.496-.116 1.717-.267 3.434-1.516 4.744-1.232 1.289-3.071 1.514-4.758 1.7-8.408.928-17.495.22-25.991.217l-51.974-.023-85.774.012c-14.215.008-28.758.698-42.941-.02-2.837-.144-6.422-.226-8.958-1.609-2.28-9.241-.992-32.826-.988-43.635l-.003-87.433c-3.259 3.029-8.287 8.93-12.9 9.294-1.683.132-3.048-.484-4.29-1.568-5.076-4.43-19.946-20.148-20.484-26.401 5.026-7.029 13.466-12.869 20.031-18.498l31.91-27.356 71.994-62.085c6.798-5.837 13.371-12.047 20.243-17.77 1.255-1.047 2.419-1.593 3.977-2.055"/><path fill="#fefefe" d="M165.303 74.44c3.047 1.008 91.961 79.141 101.818 87.942l-.011 132.426c-36.519-.497-73.127-.172-109.651.01l.061-102.071c-.255-1.667-.715-3.294-1.904-4.542-1.723-1.809-4.201-2.337-6.581-2.669-5.68-.793-12.078.108-17.861.148-8.629.062-17.261-.272-25.89-.275-3.798-.001-8.574.095-11.346 3.045-1.182 1.257-1.738 2.436-1.955 4.134-1.385 10.819-.262 23.646-.225 34.638l.01 67.589c-9.39-.166-18.805.008-28.197.045-.486-28.382-.038-56.833-.026-85.224.007-15.511.264-31.041-.719-46.529 6.712-7.886 22.917-20.166 31.366-27.447z"/><path fill="#000" d="M192.081 183.583c10.404-.155 20.826-.019 31.23-.043 5.048-.011 10.414-.531 15.424-.065 1.847.172 3.896.597 5.391 1.757 1.997 1.55 2.016 4.273 2.217 6.654.677 7.981 1.007 41.645-.168 48.261-.307 1.73-.926 2.884-2.107 4.173-1.758 1.921-3.613 2.348-6.126 2.486-8.85-.06-47.356 1.747-52.379-1.888-1.901-3.043-2.507-6.572-2.687-10.108-.438-8.577-.037-17.351-.016-25.947.016-6.664-.698-14.1.467-20.63.186-1.047.681-1.838 1.423-2.593 2.028-2.055 4.647-1.92 7.331-2.057"/><path fill="#fefefe" d="m192.523 192.762 44.121.011-.027 44.412-44.067.067z"/><path fill="#fece00" d="M165.357 34.847c13.413 10.745 26.213 22.53 39.277 33.728l99.737 86.132c-4.442 5.405-9.363 10.533-14.027 15.758-7.864-7.791-16.728-14.842-25.102-22.093l-44.959-38.979-33.6-29.159c-6.427-5.592-12.771-11.843-19.741-16.708-1.824-.051-2.878.437-4.36 1.456-4.554 3.13-8.76 7.249-12.963 10.858L124.23 97.717a4413 4413 0 0 0-83.466 72.818l-13.54-15.333c5.991-6.204 12.858-11.817 19.3-17.558a1421 1421 0 0 1 38.343-33.467z"/><path fill="#fefefe" d="m100.925 195.073 46.886-.005c-.351 33.232-.028 66.5-.032 99.737h-46.875zM231.221 55.226c8.804-.144 17.626-.004 26.431.02l-.07 46.546c-5.758-3.402-20.608-17.648-26.324-22.762z"/></svg>
